material/.icons/material/close-octagon-outline.svg

<svg xmlns="http://www.w3.org/2000/svg" viewBox="0 0 24 24"><path d="M8.27 3L3 8.27v7.46L8.27 21h7.46C17.5 19.24 21 15.73 21 15.73V8.27L15.73 3M9.1 5h5.8L19 9.1v5.8L14.9 19H9.1L5 14.9V9.1m4.12-1.39L7.71 9.12 10.59 12l-2.88 2.88 1.41 1.41L12 13.41l2.88 2.88 1.41-1.41L13.41 12l2.88-2.88-1.41-1.41L12 10.59"/></svg>

<?xml version="1.0" encoding="UTF-8"?><!DOCTYPE svg PUBLIC "-//W3C//DTD SVG 1.1//EN" "http://www.w3.org/Graphics/SVG/1.1/DTD/svg11.dtd"><svg xmlns="http://www.w3.org/2000/svg" xmlns:xlink="http://www.w3.org/1999/xlink" version="1.1" id="mdi-close-octagon-outline" width="24" height="24" viewBox="0 0 24 24"><path d="M8.27,3L3,8.27V15.73L8.27,21H15.73C17.5,19.24 21,15.73 21,15.73V8.27L15.73,3M9.1,5H14.9L19,9.1V14.9L14.9,19H9.1L5,14.9V9.1M9.12,7.71L7.71,9.12L10.59,12L7.71,14.88L9.12,16.29L12,13.41L14.88,16.29L16.29,14.88L13.41,12L16.29,9.12L14.88,7.71L12,10.59" /></svg>
